X:1
T:Kentish Cricketers
R:polka 32 march
M:4/4
L:1/8
Q:1/4=140
K:D
dB|:A2 F2 d2 B2 |A2 FE D2 dB|A2 F2 d2 f2|e2 e2 e2 dB|
|A2 F2 d2 B2 | A2 FE D2 f2| e3 d e2 f2 |1 d6 B2 :|2 d6 A2|
|:d2 f2 a4 | b2 g2 a4 | f3 e d2 f2 | e2 e2 e2 f2 | d2 f2 a4 |
|b2 g2 a2 f2 | e3 d e2 f2 |1 d6 A2 :|2 d6 B2 |
